img/youtobe.svg

<svg width="25" height="25" viewBox="0 0 25 25" fill="none" xmlns="http://www.w3.org/2000/svg">
<path d="M24.4849 6.49871C24.1967 5.42773 23.3523 4.58355 22.2815 4.29516C20.3252 3.75977 12.4998 3.75977 12.4998 3.75977C12.4998 3.75977 4.67451 3.75977 2.71815 4.27475C1.66797 4.56295 0.80299 5.42793 0.514791 6.49871C0 8.45487 0 12.5118 0 12.5118C0 12.5118 0 16.5891 0.514791 18.5249C0.803181 19.5956 1.64737 20.44 2.71834 20.7284C4.69511 21.2638 12.4999 21.2638 12.4999 21.2638C12.4999 21.2638 20.3252 21.2638 22.2815 20.7488C23.3525 20.4606 24.1967 19.6162 24.4851 18.5455C24.9999 16.5891 24.9999 12.5324 24.9999 12.5324C24.9999 12.5324 25.0205 8.45487 24.4849 6.49871Z" fill="#FF0000"/>
<path d="M10.0038 16.2605L16.5111 12.5126L10.0038 8.76465V16.2605Z" fill="white"/>
</svg>

<svg width="25" height="25" fill="none" xmlns="http://www.w3.org/2000/svg"><path d="M24.485 6.499a3.132 3.132 0 0 0-2.203-2.204C20.325 3.76 12.5 3.76 12.5 3.76s-7.825 0-9.782.515A3.196 3.196 0 0 0 .515 6.499C0 8.455 0 12.512 0 12.512s0 4.077.515 6.013a3.133 3.133 0 0 0 2.203 2.203c1.977.536 9.782.536 9.782.536s7.825 0 9.782-.515a3.132 3.132 0 0 0 2.203-2.203C25 16.588 25 12.532 25 12.532s.02-4.077-.515-6.033Z" fill="red"/><path d="m10.004 16.26 6.507-3.747-6.507-3.748v7.495Z" fill="#fff"/></svg>
